X:1
T:Songs of Joy and Peace
T:Songs of Joy and Peace
T:Solomon W. Straub
T:Nettie Dixon Hahn, 1893
T:Public Domain Courtesy of the Cyber Hymnal™
C:Solomon W. Straub
Z:Public Domain
Z:Courtesy of the Cyber Hymnal™
%%score ( 1 2 ) ( 3 4 )
L:1/8
Q:1/4=93
M:3/4
K:Ab
V:1 treble 
V:2 treble 
V:3 bass 
V:4 bass 
V:1
 [CE]>[CE] | [CE]3 [CE] [CE][CA] | [DF]2 [CE]2 [CE]>[CE] | [CA]3 [CA] [Fd]>[Fd] | %4
w: 1.~Ne- ver|let us sing of|sad- ness, Give us|songs of joy and|
w: 2.~Life is|full e- nough of|frown- ing, Give us|more of Heav- en’s|
w: 3.~Dwell on|bless- ings, not on|sor- row, And more|bright may prove the|
 [Ec]2 [EB]2 E>[EG] | [EB]3 [EA] [EB]>[Ec] | [Ed]4 [Ed]>[Ac] | [GB]3 [FA] [=DF]>[Dc] | [EB]4 || %9
w: glad- ness, Songs of|cheer and not the|sad, Songs to|make the wea- ry|glad.|
w: crown- ing, More of|peace and less of|pain, Less of|loss and more of|gain.|
w: mor- row, And some|wrong you hold to-|day, May have|winged it- self a-|way.|
"^Refrain" [ce]>[Bd] |!<(! [Ac]4- [Ac]>!<)![Fd][Ec]>[DB] | [CA]6 [ce]>[Ac] | %12
w: |||
w: Sing of|love, * and life, and|peace, Sing of|
w: |||
!<(! [GB]4- [GB]>!<)![FA][EB]>[=Dc] | [EB]6 [CE]>[EA] |!<(! [Ac]4- [Ac]>!<)![EA][FB]>[_Gc] | %15
w: |||
w: sure * and sweet re-|lease; Sing, oh,|sing, * but when you|
w: |||
!<(! [Fd]6!<)! [Ac]>[GB] |!<(! [ce]4- [ce]>!<)![Ac][Ed]>[DB] | [CA]6 |] %18
w: |||
w: sing, Give us|songs * of joy and|peace.|
w: |||
V:2
 x2 | x6 | x6 | x6 | x4 E3/2 x/ | x6 | x6 | x6 | x4 || x2 | x8 | x8 | x8 | x8 | x8 | x8 | x8 | %17
 x6 |] %18
V:3
 [A,,A,]>[A,,A,] | [A,,A,]3 [A,,A,] [A,,A,][A,,A,] | [A,,A,]2 [A,,A,]2 [A,,A,]>[A,,A,] | %3
w: ~ ~|~ ~ ~ ~|~ ~ ~ ~|
 [A,,A,]3 A, A,>A, | [E,A,]2 [E,G,]2 [E,G,]>[E,B,] | [E,G,]3 [E,F,] [E,G,]>[D,A,] | %6
w: ~ ~ ~ ~|~ ~ ~ ~|~ ~ ~ ~|
 [E,B,]4 [G,B,]>[A,C] | [B,E]3 B, [B,,B,]>[B,,A,] | [E,G,]4 || z2 | z2 A,>A, A,>A,[E,A,]>E, | %11
w: ~ ~ ~|~ ~ ~ ~|~||Sing of love, ~ ~ ~|
 [A,,E,]6 z2 | z2 [E,B,]>[E,B,] [E,B,]>[E,B,][B,,G,]>[B,,A,] | [E,G,]6 z2 | %14
w: ~|Sing of sure ~ ~ ~|~|
 z2 A,>A, A,>[_G,A,][F,A,]>[E,A,] | [D,A,]6 z2 | z2 [E,A,]>[E,A,] [E,A,]>[E,A,][E,B,]>[E,G,] | %17
w: Sing, oh, sing, ~ ~ ~|~|Give us songs * * *|
 [A,,A,]6 |] %18
w: |
V:4
 x2 | x6 | x6 | x3 A, A,>A, | x6 | x6 | x6 | x3 B, x2 | x4 || x2 | x2 A,>A, A,>A, x E,/ x/ | x8 | %12
 x8 | x8 | x2 A,>A, A,3/2 x5/2 | x8 | x8 | x6 |] %18

